X: 7965
T: Congress, The
R: reel
M: 4/4
K: Dmixolydian
|:AD (3DDD DEFG|AddB cAGc|AD (3DDD ADFD|EC (3CB,C ECEG|
AD (3DDD DEFG|AddB cAGE|FDFG ABcA|GECE DEFG:|
|:AddB cAGc|AddB cAGc|AcGc AcGc|AddB cA G2|
AddB cAGc|AddB cAGE|FDFG ABcA|GECE DEFG:|

